X:1
T:I'll fly away
C:American spiritual (unless there's a better description)
P:A4
V:1 clef=treble name="Fiddle" %%MIDI program 110 % fiddle
V:2 clef=treble name="Banjo"%%MIDI program 105 % banjo
M:4/4
L:1/4
%Q:1/4=184
K:G
%P:A
%%MIDI chordprog 105 % banjo
%%MIDI gchord ihig
%%measurenb 0
% 1 2 3 4 5
[V:1]!f!B2G2|"G"D2G2|B^ABc|(B2A2)|"C"G4-|
w:Some bright morn-ing when this life is o'er, * I'll
w:When the shad-ows of this life have gone, * I'll
w:Oh, how glad and hap-py when we meet, * I'll
w:Just a few more wea-ry days and then *I'll
[V:2]!mp!G2D2 |B,2D2 |GFGA |G2=F2|E4-|
% 6 7 8 9 10
[V:1]G2EG|"G"D4-|"D7"D2z2|"Bm"B2"G"G2|"D7"D2"G"G2|
w:* fly a-way, * to that home on
w:* fly a-way, * like a bird from
w:* fly a-way, * no more cold iron
w:* fly a-way, * just a few more
[V:2]E2CC|B,2D2 |B,2FA |DFBd |B,2D2|
% 11 12 13 14 15
[V:1]B^ABc|"Bm"B4|"G"B4-|"D7"B2AA|"G"G2-"C"G2-|
w:God's cel-est-ial shore, I'll * fly a-way.*
w:pris-on bars has flown, ******
w:shak-les on my feet, ******
w:wea-ry days and then ******
[V:2]GFGA |DFBd |D3E |D2CC |B,2C2|
% 16 17 18 19 20
[V:1]"G"G2z2|d4-|d2Bc|d2B2|A2G2|
w:* I'll * fly a-way, oh glo-ry,
w:*********
w:*********
w:*********
[V:2]B,2DG |dBGD |BdBG|B2G2|=F2F2|
% 21 22 23 24 25
[V:1]"C"G4-|G2EG|"G"D4-|D2z2 |D2E2|
w:I'll * fly a-way. * When I
w:********
w:********
w:********
[V:2]EGEC |EGCC|B,DG2 |B,DGD|B,2C2|
% 26 27 28 29 30
[V:1]G2GA|B^ABc|B4 |B4-|"D"B2AA|
w:die, Hal-le-lu-jah by and by, I'll * fly a-
w:************
w:************
w:************
[V:2]D2DD|GFGA |GBdB|D3E|D2CC|
% 31 32
[V:1]"G"G2-"C"G2-|"G"G2z2|]
w:way. **
w:***
w:***
w:***
[V:2]B,DCE |B,DG2|]

